src/assets/img/logo.svg

<svg width="288" height="29" viewBox="0 0 288 29" fill="none" xmlns="http://www.w3.org/2000/svg">
<path d="M22.1879 8.51721H16.196L6.98783 25.7283V8.51721H0.484375V28.7394H5.37716H6.98783H12.7771L22.1879 11.1405V28.7394H28.6913V8.51721H23.5909H22.1879Z" fill="black"/>
<path d="M249.858 8.51721H243.861L234.658 25.7283V8.51721H228.154V28.7394H233.042H234.658H240.442L249.858 11.1405V28.7394H256.361V8.51721H251.261H249.858Z" fill="black"/>
<path d="M56.1586 18.6283H40.9585V8.51721H34.4551V28.7394H40.9585V23.1791H56.1586V28.7394H62.6671V8.51721H56.1586V18.6283Z" fill="black"/>
<path d="M90.9335 8.51721H78.2456L70.4557 23.0765H65.2539V28.7394H101.57L104.584 23.105H98.7437L90.9335 8.51721ZM82.6117 14.1801H86.5877L91.3437 23.0765H77.8556L82.6117 14.1801Z" fill="black"/>
<path d="M142.756 8.51721H137.022H135.356L124.542 28.7394H130.686H152.749V28.7166L149.73 23.0765H134.966L139.727 14.1801H152.749V14.1573L149.73 8.51721H142.756Z" fill="black"/>
<path d="M177.303 8.51721H170.799H164.995H158.491V14.1801V28.7394H164.995V14.1801H170.799V28.7394H177.303V14.1801H183.107V28.7394H189.616V14.1801V14.1573L186.597 8.51721H177.303Z" fill="black"/>
<path d="M185.559 6.31586L182.541 0.675781H158.578V6.33867H185.559V6.31586Z" fill="black"/>
<path d="M217.114 8.51721H202.81H196.307V14.1801V28.7394H202.81V14.1801H214.085L211.704 18.6283H207.029L204.01 24.2684V24.2912H215.407H216.075L224.514 8.51721H218.117H217.114Z" fill="black"/>
<path d="M121.182 8.51721L115.778 18.6283H113.179L107.77 8.51721H100.37L108.216 23.1791H108.737H113.347L110.373 28.7394H117.768L128.582 8.51721H121.182Z" fill="black"/>
<path d="M281.308 8.51721H267.004H266.002H259.604L268.043 24.2912L265.662 28.7394H273.062L275.443 24.2912H280.108V24.2684L277.089 18.6283H272.414L270.033 14.1801H281.308V28.7394H287.817V14.1801V8.51721H281.308Z" fill="black"/>
</svg>

<svg width="288" height="29" fill="none" xmlns="http://www.w3.org/2000/svg"><path d="M22.2 8.5h-6L7 25.7V8.5H.5v20.2h12.3l9.4-17.6v17.6h6.5V8.5h-6.5ZM249.9 8.5h-6l-9.2 17.2V8.5h-6.5v20.2h12.2l9.5-17.6v17.6h6.5V8.5h-6.5ZM56.2 18.6H41v-10h-6.5v20.1H41v-5.5h15.2v5.5h6.5V8.5h-6.5v10.1ZM91 8.5H78.1l-7.7 14.6h-5.2v5.6h36.3l3-5.6h-5.9L91 8.5Zm-8.4 5.7h4l4.7 8.9H78l4.7-9ZM142.8 8.5h-7.4l-10.9 20.2h28.2l-3-5.6H135l4.7-9h13l-3-5.6h-7ZM177.3 8.5h-18.8v20.2h6.5V14.2h5.8v14.5h6.5V14.2h5.8v14.5h6.5V14.2l-3-5.7h-9.3ZM185.6 6.3l-3-5.6h-24v5.6h27ZM217.1 8.5h-20.8v20.2h6.5V14.2h11.3l-2.4 4.4H207l-3 5.7h12.1l8.4-15.8h-7.4ZM121.2 8.5l-5.4 10.1h-2.6l-5.4-10h-7.4l7.8 14.6h5.1l-3 5.5h7.5l10.8-20.2h-7.4ZM281.3 8.5H259.6l8.4 15.8-2.3 4.4h7.4l2.3-4.4h4.7l-3-5.7h-4.7l-2.4-4.4h11.3v14.5h6.5V8.5h-6.5Z" fill="#000"/></svg>
